X:99
T:Polska efter Pelle Fors
R:sl\"angpolska
H:Efter Anselm och Allan Hellstr\"om
A:\"Osterg\"otland
Z:id:hn-sp-99
M:3/4
L:1/16
K:G
D3G G2B2 B/c/B/A/B2 | G3B B2d2 dedB | cdec A2A2 GFEF | GFGB AGFE DCB,D |
D3G G2B2 B/c/B/A/B2 | G3B B2d2 dedB | cdec A2A2 GFEF | D2EF G8 :|
|: g/a/gfg e4 c4 | c2e2 e2g2 gagf | f2d2 dBGB dedc | A2A2 GFEF GFGB |
AGFE DCB,A, G,2g2 | e2e2 cAce eggf | f2d2 dBGB dedc | A2A2 GFEF D2EF |
G12 :|
<end>
<start>
